X: 79
T: Bai ling niao
%%abc-version 2.0
%%abcx-abcm2ps-target-version 5.9.1 (29 Sep 2008)
%%abc-creator hum2abc beta
%%abcx-conversion-date 2013/10/02 07:44:27
%%abc-edited-by Helmut Schaffrath
%%humdrum-veritas 2375155799
%%humdrum-veritas-data 2569743423
%%continueall 1
%%barnumbers 0
L: 1/16
M: 2/4
K: C
z2 c c B G A F [I:setbarnb 1]| 
G F/ G< E D/D4- | 
D d c c B G A F | 
G F/ G/ E DD4- | 
D d c c B G A F | 
G F/ G< E D/D4- | 
D z A B d c e d- | 
d A/ A/ c B c A3- | 
A z A B d c e d- | 
d A c B c A3- | 
A z A B d c e d- | 
d A/ A/ A A c B/ d/ c B | 
A G c B c A3- | 
A z c c B> B c A- | 
A G/ A/ G F E2 F D- | 
D D E F A G A d | 
c/ d/ B A G A F F/ G/ E- | 
E C C D E F G E/ G/ | 
F D D> DD4- | 
D2< z2z4 |]  



